X:1
T:Sweeter as the Years Go By
T:Sweeter as the Years Go By
T:Lelia Naylor Morris
T:Lelia Naylor Morris, 1912
T:Public Domain Courtesy of the Cyber Hymnal™
T:Public Domain Courtesy of the Cyber Hymnal™
C:Lelia Naylor Morris
Z:Public Domain
Z:Courtesy of the Cyber Hymnal™
%%score ( 1 2 ) ( 3 4 )
L:1/8
Q:1/4=105
M:3/4
K:Bb
V:1 treble 
V:2 treble 
V:3 bass 
V:4 bass 
V:1
 [DF]2 | [DF]3 [DB] [DA][DG] | [DF]2 [B,D]2 [CE]2 | [DF]3 [DB] [DF][DG] | [EA]4 [EF]2 | %5
w: 1.~Of|Je- sus’ love that|sought me, When|I was lost in|sin; Of|
w: 2.~He|trod in old Ju-|de- a Life’s|path- way long a-|go; The|
w: 3.~’Twas|won- drous love which|led Him For|us to suf- fer|loss, To|
 [Ec]3 [Ec] [EG][EA] | [DB]2 [DF]2 [Fd]2 | [=Ec]3 [EG] [EA][EB] | [EA]4 ([EG]F) | %9
w: won- drous grace that|brought me Back|to His fold a-|gain; Of *|
w: peo- ple thronged a-|bout Him, His|sav- ing grace to|know; He *|
w: bear with- out a|mur- mur The|ang- uish of the|cross; With *|
 [Fd]3 [Fd] [Ge][Fd] | [Fd]2 [Ec]2 [EF]2 | [Ec]3 [Ec] [Fd][Ec] | ([Ec]2 [DB]2) B2 | %13
w: heights and depths of|mer- cy, Far|deep- er than the|sea, * And|
w: healed the brok- en|heart- ed, And|caused the blind to|see; * And|
w: saints re- deemed in|glor- y, Let|us our voic- es|raise, * Till|
 [GB]3 [GB] [FA][EG] | [DF]2 [FB]2 [Ge]2 | [Fd]3 [Fd] [Ec][Ec] | [DB]6 || %17
w: high- er than the|hea- vens, My|theme shall ev- er|be.|
w: still His great heart|yearn- eth In|love for e- ven|me.|
w: Heav’n and earth re-|e- cho With|our Re- deem- er’s|praise.|
[M:4/4]"^Refrain" [DF]>[^C=E] [DF]>[CE] [DF]2 [Fd]2 | ([Ec]4 [EG]4) | A>^G A>B [_Ec]2 [=E^c]2 | %20
w: |||
w: Swee- ter as the years go|by, *|Sweet- er as the years go|
w: |||
 d6 z2 | [DF]>[^C=E] [DF]>[DB] [Fd]2 [FB]2 | [Gc]>[G=B] [Gc]>[Gd] [Ge]2 [Fc]2 | %23
w: |||
w: by,|Rich- er, full- er, deep- er,|Je- sus’ love is sweet- er,|
w: |||
 [Ff]>[Fd] [DB]>[DG] [=EB]2 [_Ec]2 | [DB]4 x4 |] x4 |] %26
w: |||
w: Sweet- er as the years go|by.||
w: |||
V:2
 x2 | x6 | x6 | x6 | x6 | x6 | x6 | x6 | x6 | x6 | x6 | x6 | x4 (F^F) | x6 | x6 | x6 | x6 || %17
[M:4/4] x8 | x8 | =E2 E2 x4 | (F>B A>G F2) x2 | x8 | x8 | x8 | x8 |] x4 |] %26
V:3
 F,2 | F,3 B, A,G, | F,2 D,2 E,2 | F,3 B, F,G, | [C,A,]4 F,2 | C3 C G,A, | B,2 F,2 D2 | %7
w: ~|~ ~ ~ ~|~ ~ ~|~ ~ ~ ~|~ ~|~ ~ ~ ~|~ ~ ~|
 D3 G, A,B, | [F,,A,]4 (G,F,) | D3 D FE | D2 C2 F,2 | C3 C DC | (C2 B,2) [D,B,]2 | B,3 B, A,G, | %14
w: ~ ~ ~ ~|~ ~ *|~ ~ ~ ~|~ ~ ~|~ ~ ~ ~|~ * ~|~ ~ ~ ~|
 [B,,F,]2 [D,B,]2 [E,E]2 | D3 D CC | [B,,F,B,]6 ||[M:4/4] [B,,B,]2 x6 | %18
w: ~ ~ ~|~ ~ ~ ~|Sweet-|er|
 [B,,B,]2 [B,,B,]2 [B,,B,]2 x2 | [E,G,]2 [E,G,]2 [E,C]2 [E,C]2 | [F,C]2 [F,C]2 [F,A,]2 [F,A,]2 | %21
w: as the years|go by, ’Tis sweet-|er as the years|
 [B,,B,]2 [B,,B,]2 [B,,B,]4 | [B,,B,]>[B,,B,] [B,,B,]>[B,,B,] [B,,B,]2 [D,B,]2 | %23
w: go by; *||
 [E,B,]>[E,B,] [E,B,]>[D,=B,] [C,C]2 [E,A,]2 | [D,B,]>[B,,B,] [G,B,]>[G,B,] [C,G,]2 [F,,F,A,]2 |] %25
w: ||
 [B,,F,B,]4 |] %26
w: |
V:4
 F,2 | B,,6- | B,,6 | B,,6 | x4 F,2 | F,,4 x2 | B,,6 | C,6 | x6 | B,,6 | F,6 | F,,4 x2 | B,,4 x2 | %13
 E,6 | x6 | F,4 [F,,F,]2 | x6 ||[M:4/4] x8 | x8 | x8 | x8 | x8 | x8 | x8 | x8 |] x4 |] %26

